components/ui-node-icon/src/jsonFile/jsonFile.small.svg

<svg width="16" height="16" viewBox="0 0 16 16" fill="none" xmlns="http://www.w3.org/2000/svg">
  <path fill-rule="evenodd" clip-rule="evenodd" d="M2.5 5.5C2.5 4.11929 3.61929 3 5 3H6C6.27614 3 6.5 3.22386 6.5 3.5C6.5 3.77614 6.27614 4 6 4H5C4.17157 4 3.5 4.67157 3.5 5.5V6.58579C3.5 6.98361 3.34196 7.36514 3.06066 7.64645L2.20711 8.5L3.06066 9.35355C3.34196 9.63486 3.5 10.0164 3.5 10.4142V11.5C3.5 12.3284 4.17157 13 5 13H6C6.27614 13 6.5 13.2239 6.5 13.5C6.5 13.7761 6.27614 14 6 14H5C3.61929 14 2.5 12.8807 2.5 11.5V10.4142C2.5 10.2816 2.44732 10.1544 2.35355 10.0607L1.14645 8.85355C0.951184 8.65829 0.951184 8.34171 1.14645 8.14645L2.35355 6.93934C2.44732 6.84557 2.5 6.71839 2.5 6.58579V5.5ZM13.5 5.5C13.5 4.11929 12.3807 3 11 3H10C9.72386 3 9.5 3.22386 9.5 3.5C9.5 3.77614 9.72386 4 10 4H11C11.8284 4 12.5 4.67157 12.5 5.5V6.58579C12.5 6.98361 12.658 7.36514 12.9393 7.64645L13.7929 8.5L12.9393 9.35355C12.658 9.63486 12.5 10.0164 12.5 10.4142V11.5C12.5 12.3284 11.8284 13 11 13H10C9.72386 13 9.5 13.2239 9.5 13.5C9.5 13.7761 9.72386 14 10 14H11C12.3807 14 13.5 12.8807 13.5 11.5V10.4142C13.5 10.2816 13.5527 10.1544 13.6464 10.0607L14.8536 8.85355C15.0488 8.65829 15.0488 8.34171 14.8536 8.14645L13.6464 6.93934C13.5527 6.84557 13.5 6.71839 13.5 6.58579V5.5ZM8 8C8.55228 8 9 7.55228 9 7C9 6.44772 8.55228 6 8 6C7.44772 6 7 6.44772 7 7C7 7.55228 7.44772 8 8 8ZM9 10C9 9.44772 8.55228 9 8 9C7.44772 9 7 9.44772 7 10C7 10.3657 7.19627 10.6855 7.48921 10.8599C7.43528 11.7048 7.19262 11.9236 7.07057 11.9802C7.02543 11.9936 7 12 7 12C7 12 7.02792 12 7.07057 11.9802C7.42565 11.8745 9 11.3308 9 10Z" fill="currentColor"/>
</svg>

<svg xmlns="http://www.w3.org/2000/svg" width="16" height="16" fill="none" viewBox="0 0 16 16">
  <path fill="currentColor" fill-rule="evenodd" d="M2.5 5.5A2.5 2.5 0 0 1 5 3h1a.5.5 0 0 1 0 1H5a1.5 1.5 0 0 0-1.5 1.5v1.086a1.5 1.5 0 0 1-.44 1.06l-.853.854.854.854a1.5 1.5 0 0 1 .439 1.06V11.5A1.5 1.5 0 0 0 5 13h1a.5.5 0 0 1 0 1H5a2.5 2.5 0 0 1-2.5-2.5v-1.086a.5.5 0 0 0-.146-.353L1.146 8.854a.5.5 0 0 1 0-.708L2.354 6.94a.5.5 0 0 0 .146-.353V5.5Zm11 0A2.5 2.5 0 0 0 11 3h-1a.5.5 0 0 0 0 1h1a1.5 1.5 0 0 1 1.5 1.5v1.086c0 .398.158.78.44 1.06l.853.854-.854.854a1.5 1.5 0 0 0-.439 1.06V11.5A1.5 1.5 0 0 1 11 13h-1a.5.5 0 0 0 0 1h1a2.5 2.5 0 0 0 2.5-2.5v-1.086a.5.5 0 0 1 .146-.353l1.208-1.207a.5.5 0 0 0 0-.708L13.646 6.94a.5.5 0 0 1-.146-.353V5.5ZM8 8a1 1 0 1 0 0-2 1 1 0 0 0 0 2Zm1 2a1 1 0 1 0-1.51.86c-.055.845-.297 1.064-.42 1.12-.045.014-.07.02-.07.02s.028 0 .07-.02C7.427 11.874 9 11.33 9 10Z" clip-rule="evenodd"/>
</svg>
